app/assets/img/ic-hap-certified.svg

<svg fill="none" height="16" viewBox="0 0 12 16" width="12" xmlns="http://www.w3.org/2000/svg"><path clip-rule="evenodd" d="m.23999 3.41823 5.88-2.618181 5.88001 2.618181v3.92727c0 3.636-2.50554 7.0265-5.88001 7.8545-3.37447-.828-5.88-4.2185-5.88-7.8545zm1.95999 5.23635 2.61333 2.61822 5.22669-5.2364-.92449-.92618-4.3022 4.31018-1.68887-1.692z" fill="#276ce5" fill-rule="evenodd"/></svg>

<svg width="12" height="16" viewBox="0 0 12 16" fill="none" xmlns="http://www.w3.org/2000/svg">
<path fill-rule="evenodd" clip-rule="evenodd" d="M0.23999 3.41823L6.11999 0.800049L12 3.41823V7.3455C12 10.9815 9.49446 14.372 6.11999 15.2C2.74552 14.372 0.23999 10.9815 0.23999 7.3455V3.41823ZM2.19998 8.65458L4.81331 11.2728L10.04 6.0364L9.11551 5.11022L4.81331 9.4204L3.12444 7.7284L2.19998 8.65458Z" fill="#276CE5"/>
</svg>
